!!!SOCIAL_FUNCTION:	songs of war
!!!PDT:	1918

Specific Region: Dakotas, Minnesota, Montana, Nebraska
!!!REG: Dakotas and Montana
!!!LING_GROUP: Siouan
!!!LANG: Tone
!!!OTL@ENG: Wolf Song
!!!ONM: No. 133a
**kern
*Imale
*clefF4
*M2/4
*MM96
8A
8A
=1
8.e
16d
4c
=2
8.e
16d
4c
=3
8c
8c
8c
8A
=4
8.c
16c
4A
=5
8G
8G
8G
8E
=6||
*M3/4
2E
12c
12c
12A
=7||
*M2/4
8.c
16c
4A
=8
8G
8G
8G
8E
=9
8.E
16D
12C
12E
12D
=10
4C
8D
8C
=11||
*M3/4
4AA
4.AA
8AA
=12||
*M2/4
[2AA
=13
4AA]
8.A
16A
=14||
*M3/4
*MM69
12A
12e
12d
12c
12e
12d
4c
=15||
*M2/4
*MM96
16e
8.c
16c
8.A
=16
8.c
16c
4A
=17
8G
8G
8G
8E
=18||
*M3/4
8E
[8E
4E]
12c
12c
12A
=19||
*M2/4
8.c
16c
4A
=20
8G
8G
8G
8E
=21
8.E
16D
12C
12E
12D
=22
4C
8D
8C
=23||
*M3/4
8.AA
16AA
4.AA
8AA
=24
2.AA
==
*-
!!!CNT: Native American -- Sioux
!!!MRD: 1911/07//-1914///
!!!OCL: Frances Densmore
!!!YOR1: Teton Sioux Music, Bulletin 61,
!!!YOR2: Bureau of American Ethnology, Smithsonian Institution
!!!PPR: Government Printing Office
!!!PPP: Washington, D.C.
!!!PDT: 1918///
!!!ENC: Craig Stuart Sapp
!!!END: 2002/03/25/
!!!EEV: 2002/03/31/
!!!AGN: War Song/Song of a Typical War Expedition
!!!MPN@@SIO: Waha'chungka-nong'pa
!!!MPN@ENG: Two Shields
!!!TXO: Teton Sioux
!!!MLC: Standing Rock Reservation, South Dakota, United States of America
!!!ARL: 45.9/-100.7#
!!!catalog: Catalogue No. 524
!!!PPG: 345
!!!EFL: 137/245
!!!VTS: 397669743
